X: 33219
T: Pterodactyl Twostep
R: jig
M: 6/8
K: Eminor
EFG B2e|^A2e 2<B2|ABc BAG|A2^A2< B2|
EFG B2e|^A2ed2e|dcB AGF|E2 e2<E2|
EFG B2e|^A2e2< B2|ABc BAG|A2^A2< B2|
EFG B2e|^A2ed2e|dcB AGF|E2e2< E2||
E2e E2e|dcB AGF|EFG FGA|A2 ^A2< B2|
E2e E2e|dcB AGF|EFG FGA|E3F3|
E2 eE2e|dcB AGF|EFG FGA|A2 ^A2<B2|
E2 eE2e|dcB AGF|E3F3|A^A=AG2F||

